X:555
T:Reel 555
M:4/4
K:Amin
L:1/8
G|EAA^G A2A=G|E^GAB cABA|G2GA GABA|GEDC B,G,G,B,|A,^G,A,B, CB,CD|EAAB cABA|GABc d2Bd|cABG A2|GE|A2BA AGE^F|GEDC B,CDB,|A,AA^G ABBd|cABG EAAG|EAAG AGAG|BGdG BGAG|EAA^G ABcf|ecdB AAA|
